site/static/images/icons/svg/pink-drop.svg

<svg fill="none" height="9" viewBox="0 0 14 9" width="14" xmlns="http://www.w3.org/2000/svg"><path clip-rule="evenodd" d="m.21967.71967c-.2928933.29289-.2928933.76777 0 1.06066l6.25 6.25c.29289.29289.76777.29289 1.06066 0l6.24997-6.25c.2929-.29289.2929-.76777 0-1.06066-.2929-.292893-.7677-.292893-1.0606 0l-5.7197 5.71967-5.71967-5.71967c-.292893-.292893-.767767-.292893-1.06066 0z" fill="#ff659d" fill-rule="evenodd"/></svg>

<svg width="14" height="9" viewBox="0 0 14 9" fill="none" xmlns="http://www.w3.org/2000/svg">
<path fill-rule="evenodd" clip-rule="evenodd" d="M0.21967 0.71967C-0.0732233 1.01256 -0.0732233 1.48744 0.21967 1.78033L6.46967 8.03033C6.76256 8.32322 7.23744 8.32322 7.53033 8.03033L13.7803 1.78033C14.0732 1.48744 14.0732 1.01256 13.7803 0.71967C13.4874 0.426777 13.0126 0.426777 12.7197 0.71967L7 6.43934L1.28033 0.71967C0.987437 0.426777 0.512563 0.426777 0.21967 0.71967Z" fill="#FF659D"/>
</svg>
